src/scalable/places/folder-godot.svg

<svg xmlns="http://www.w3.org/2000/svg" xmlns:xlink="http://www.w3.org/1999/xlink" width="64" height="64"><defs><linearGradient id="a"><stop offset="0"/><stop offset="1" stop-opacity="0"/></linearGradient><linearGradient xlink:href="#a" id="b" x1="31" x2="31" y1="1005.4" y2="1003.4" gradientTransform="matrix(.92593 0 0 1 2.37 -988.4)" gradientUnits="userSpaceOnUse"/></defs><path fill="#d0a15c" d="M13 8c-1.108 0-2 .892-2 2H9c-.99 0-2 .892-2 2v6c0 1.108 1.01 2 2 2h46c.99 0 2-.892 2-2v-6c0-1.108-1.01-2-2-2H31c0-1.108-.892-2-2-2z"/><rect width="46" height="9" x="9" y="12" opacity=".06" rx="2" ry="2"/><rect width="44" height="7" x="10" y="13" fill="#fff" rx="1" ry="1"/><rect width="56" height="39" x="4" y="17" fill="#d0a15c" rx="2" ry="2"/><rect width="50" height="2" x="7" y="15" fill="url(#b)" opacity=".1" ry="0"/><rect width="56" height="38" x="4" y="17" fill="#f4be70" rx="2" ry="2"/><rect width="50" height="5" x="7" y="56" fill="url(#d)" opacity=".1" ry="0"/><path fill="#fff" d="M6 17c-1.108 0-2 .892-2 2v1c0-1.108.892-2 2-2h52c1.108 0 2 .892 2 2v-1c0-1.108-.892-2-2-2zm7-9c-1.108 0-2 .892-2 2H9c-.99 0-2 .892-2 2v1c0-1.108 1.01-2 2-2h2c0-1.108.892-2 2-2h16c1.108 0 2 .892 2 2h24c.99 0 2 .892 2 2v-1c0-1.108-1.01-2-2-2H31c0-1.108-.892-2-2-2z" opacity=".15"/><path d="m30 27-3 1v2.5L25.5 32l-1.7-1.3L22 33l1 2v6h4v2h3v-2h4v2h3v-2h4v-6l1-2-1.8-2.3-1.7 1.3-1.5-1.5V28s-2.1-.8-3-1c-.4.6-.7 1.3-1 2h-2c-.3-.7-1-2-1-2m-2.5 8a2.5 2.5 0 0 1 2.5 2.5 2.5 2.5 0 0 1-2.5 2.5 2.5 2.5 0 0 1-2.5-2.5 2.5 2.5 0 0 1 2.5-2.5m9 0a2.5 2.5 0 0 1 2.5 2.5 2.5 2.5 0 0 1-2.5 2.5 2.5 2.5 0 0 1-2.5-2.5 2.5 2.5 0 0 1 2.5-2.5m-9 1a1.5 1.5 0 0 0-1.5 1.5 1.5 1.5 0 0 0 1.5 1.5 1.5 1.5 0 0 0 1.5-1.5 1.5 1.5 0 0 0-1.5-1.5m4.5 0c.5 0 1 .5 1 1v2c0 .5-.5 1-1 1s-1-.5-1-1v-2c0-.5.446-1 1-1m4.5 0a1.5 1.5 0 0 0-1.5 1.5 1.5 1.5 0 0 0 1.5 1.5 1.5 1.5 0 0 0 1.5-1.5 1.5 1.5 0 0 0-1.5-1.5M23 42v.5c0 3.3 4.1 4.5 9 4.5s9-1.5 9-4.8V42h-3v2h-5v-2h-2v2h-5v-2z" class="ColorScheme-Text" style="fill:#fff"/></svg>

<?xml version="1.0" encoding="UTF-8"?>
<svg xmlns="http://www.w3.org/2000/svg" viewBox="0 0 64 64">
 <defs>
  <linearGradient id="a">
   <stop offset="0"/>
   <stop stop-opacity="0" offset="1"/>
  </linearGradient>
  <linearGradient id="b" x1="31" x2="31" y1="1005.4" y2="1003.4" gradientTransform="matrix(.92593 0 0 1 2.37 -988.4)" gradientUnits="userSpaceOnUse" xlink:href="#a"/>
  <radialGradient id="d" cx="32" cy="1021.9" r="25" gradientTransform="matrix(-1 0 0 -.08 64 137.7)" gradientUnits="userSpaceOnUse" xlink:href="#a"/>
 </defs>
 <path d="M13 8c-1.108 0-2 .892-2 2H9c-.99 0-2 .892-2 2v6c0 1.108 1.01 2 2 2h46c.99 0 2-.892 2-2v-6c0-1.108-1.01-2-2-2H31c0-1.108-.892-2-2-2z" fill="#d0a15c"/>
 <rect x="9" y="12" width="46" height="9" rx="2" ry="2" opacity=".06"/>
 <rect x="10" y="13" width="44" height="7" rx="1" ry="1" fill="#fff"/>
 <rect x="4" y="17" width="56" height="39" rx="2" ry="2" fill="#d0a15c"/>
 <rect x="7" y="15" width="50" height="2" ry="0" fill="url(#b)" opacity=".1"/>
 <rect x="4" y="17" width="56" height="38" rx="2" ry="2" fill="#f4be70"/>
 <rect x="7" y="56" width="50" height="5" ry="0" fill="url(#d)" opacity=".1"/>
 <path d="M6 17c-1.108 0-2 .892-2 2v1c0-1.108.892-2 2-2h52c1.108 0 2 .892 2 2v-1c0-1.108-.892-2-2-2zM13 8c-1.108 0-2 .892-2 2H9c-.99 0-2 .892-2 2v1c0-1.108 1.01-2 2-2h2c0-1.108.892-2 2-2h16c1.108 0 2 .892 2 2h24c.99 0 2 .892 2 2v-1c0-1.108-1.01-2-2-2H31c0-1.108-.892-2-2-2z" fill="#fff" opacity=".15"/>
 <path style="fill:#ffffff" d="M 30 27 L 27 28 L 27 30.5 L 25.5 32 L 23.8 30.7 L 22 33 L 23 35 L 23 41 L 27 41 L 27 43 L 30 43 L 30 41 L 34 41 L 34 43 L 37 43 L 37 41 L 41 41 L 41 35 L 42 33 L 40.2 30.7 L 38.5 32 L 37 30.5 L 37 28 C 37 28 34.9 27.2 34 27 C 33.6 27.6 33.3 28.3 33 29 L 31 29 C 30.7 28.3 30 27 30 27 z M 27.5 35 A 2.5 2.5 0 0 1 30 37.5 A 2.5 2.5 0 0 1 27.5 40 A 2.5 2.5 0 0 1 25 37.5 A 2.5 2.5 0 0 1 27.5 35 z M 36.5 35 A 2.5 2.5 0 0 1 39 37.5 A 2.5 2.5 0 0 1 36.5 40 A 2.5 2.5 0 0 1 34 37.5 A 2.5 2.5 0 0 1 36.5 35 z M 27.5 36 A 1.5 1.5 0 0 0 26 37.5 A 1.5 1.5 0 0 0 27.5 39 A 1.5 1.5 0 0 0 29 37.5 A 1.5 1.5 0 0 0 27.5 36 z M 32 36 C 32.5 36 33 36.5 33 37 L 33 39 C 33 39.5 32.5 40 32 40 C 31.5 40 31 39.5 31 39 L 31 37 C 31 36.5 31.446 36 32 36 z M 36.5 36 A 1.5 1.5 0 0 0 35 37.5 A 1.5 1.5 0 0 0 36.5 39 A 1.5 1.5 0 0 0 38 37.5 A 1.5 1.5 0 0 0 36.5 36 z M 23 42 L 23 42.5 C 23 45.8 27.1 47 32 47 L 32 47 L 32 47 C 36.9 47 41 45.5 41 42.2 C 41 42.1 41 42.3 41 42 L 38 42 L 38 44 L 33 44 L 33 42 L 31 42 L 31 44 L 26 44 L 26 42 L 23 42 z " class="ColorScheme-Text"/>
</svg>
